X:1
T:Title
%%score { ( 1 3 4 ) | 2 }
L:1/8
M:2/4
K:C
V:1 treble nm="Grand Piano"
V:3 treble 
V:4 treble 
V:2 bass 
V:1
 z2 z[Q:1/4=94] G | AG ^FA | G4 | FE DF | z2 z G | AG ^FA | G4 | DG AB | G3 G | FG FG | z2 z B | %11
 GA GA | z2 z G | Ac BA | AG GE | GG AG |[M:3/8] c3 |[M:1/8] [Ec] |[M:2/4] cB BA | [FA][EG] [EG]G | %20
 BA FA |[M:3/8] [EG]3 |[M:1/8] [EG] |[M:2/4] [CFA][CAc] [CGB][CFA] | [CFA][CEG] [CEG][CE] | %25
 [B,DG][B,DG] [B,FA][B,FG] |[M:3/8] [CEc]3 |] %27
V:2
 z4 | C,2 [^F,A,C_E]2 | C,2 [G,C]2 | G,,2 [F,G,B,]2 | C,2 [E,G,]2 | C,2 [^F,A,C_E]2 | C,2 [G,C]2 | %7
 D,2 [^F,A,CD]2 | [G,B,D]4 | G,,2 [F,G,B,]2 | G,,2 [F,G,]2 | C,2 [E,G,C]2 | C,2 [E,G,]2 | %13
 F,,2 [F,A,C]2 | C,2 [E,G,C]2 | G,,2 [F,A,B,]2 |[M:3/8] [C,E,G,C]3 |[M:1/8] [C,C] | %18
[M:2/4][K:treble] [G,DF][G,DF] [G,DG][G,B,F] | [C,C][C,C] [C,C][E,C] | %20
 [G,DF][G,DF] [G,B,D][G,B,F] |[M:3/8][K:bass] [C,C]3 |[M:1/8] [C,C] |[M:2/4] F,F, F,F, | %24
 C,C, C,C, | G,,G,, G,,G,, |[M:3/8] G,3 |] %27
V:3
 x4 | x4 | z2 EE | x4 | E4 | x4 | z2 EE | x4 | x4 | x4 | A4 | x4 | G4 | x4 | x4 | x4 |[M:3/8] x3 | %17
[M:1/8] x |[M:2/4] x4 | x4 | x4 |[M:3/8] x3 |[M:1/8] x |[M:2/4] x4 | x4 | x4 |[M:3/8] x3 |] %27
V:4
 x4 | x4 | x4 | x4 | z2 C2 | x4 | x4 | x4 | x4 | x4 | z2 B,2 | x4 | z2 C2 | x4 | x4 | x4 | %16
[M:3/8] x3 |[M:1/8] x |[M:2/4] x4 | x4 | x4 |[M:3/8] x3 |[M:1/8] x |[M:2/4] x4 | x4 | x4 | %26
[M:3/8] x3 |] %27

